src/assets/filled/PictureFrame.svg

<svg width="24" height="24" viewBox="0 0 24 24"  xmlns="http://www.w3.org/2000/svg">
<path d="M10.51 11.22L8.31 2.39C8.26 2.16 8.05 2 7.81 2C4.6 2 2 4.6 2 7.81V13.51C2 13.85 2.33 14.1 2.66 14L10.16 11.83C10.42 11.76 10.58 11.49 10.51 11.22Z" />
<path d="M11.12 13.6799C11.05 13.3999 10.76 13.2299 10.48 13.3099L2.37 15.6699C2.15 15.7399 2 15.9399 2 16.1699V16.1899C2 19.3999 4.6 21.9999 7.81 21.9999H12.53C12.86 21.9999 13.11 21.6899 13.03 21.3599L11.12 13.6799Z" />
<path d="M16.1901 2H10.4401C10.1101 2 9.86007 2.31 9.94007 2.64L14.6801 21.61C14.7401 21.84 14.9401 22 15.1801 22H16.1801C19.4001 22 22.0001 19.4 22.0001 16.19V7.81C22.0001 4.6 19.4001 2 16.1901 2Z" />
</svg>

<?xml version="1.0" encoding="UTF-8"?>
<svg width="24" height="24" viewBox="0 0 24 24" xmlns="http://www.w3.org/2000/svg">
 <path d="M10.51 11.22L8.31 2.39C8.26 2.16 8.05 2 7.81 2C4.6 2 2 4.6 2 7.81V13.51C2 13.85 2.33 14.1 2.66 14L10.16 11.83C10.42 11.76 10.58 11.49 10.51 11.22Z"/>
 <path d="m11.12 13.68c-0.07-0.28-0.36-0.45-0.64-0.37l-8.11 2.36c-0.22 0.07-0.37 0.27-0.37 0.5v0.02c0 3.21 2.6 5.81 5.81 5.81h4.72c0.33 0 0.58-0.31 0.5-0.64l-1.91-7.68z"/>
 <path d="m16.19 2h-5.75c-0.33 0-0.58003 0.31-0.50003 0.64l4.74 18.97c0.06 0.23 0.26 0.39 0.5 0.39h1c3.22 0 5.82-2.6 5.82-5.81v-8.38c0-3.21-2.6-5.81-5.81-5.81z"/>
</svg>
